svg/u1f44a.svg

<svg viewBox="0 0 128 128" xmlns="http://www.w3.org/2000/svg">
  <defs>
    <radialGradient id="c" cx="-92.147894" cy="-124.987847" gradientTransform="matrix(-0.0709 -0.8662 -0.6571 0.0538 0 0)" gradientUnits="userSpaceOnUse" r="47.281">
      <stop offset=".3" stop-color="#FFCA28"/>
      <stop offset=".8" stop-color="#FFB300"/>
    </radialGradient>
    <radialGradient id="b" cx="48.48" cy="32.937" gradientUnits="userSpaceOnUse" r="91.087">
      <stop offset=".4" stop-color="#FFCA28"/>
      <stop offset="1" stop-color="#FFB300"/>
    </radialGradient>
  </defs>
  <path d="M80.88,73.92 C81.12,77.03 79.18,79.83 76.14,80.6 C74.27,81.07 75.06,83.97 76.94,83.49 C81.19,82.41 84.22,78.31 83.89,73.92 C83.74,72 80.74,71.99 80.88,73.92 Z" fill="#EDA600"/>
  <path d="M69.18,114.71 C61.96,114.59 56.81,104.13 58.12,97.49 C59.61,89.99 64.52,85.25 73.49,86.35 C94.3,88.9 98.88,84.64 101.07,78.21 C104.1,69.34 107.14,29.01 107.14,29.01 C107.14,29.01 113.46,38.81 117.54,56.85 C119.18,64.08 120.5,70.83 121.48,76.25 C123.35,86.52 121.74,97.18 116.58,106.25 C114.37,110.14 111.76,113.32 108.94,113.98 C100.74,115.9 101.66,111.87 91.08,112 C81.13,112.14 75.06,116.26 69.18,114.71 Z" fill="url(#c)"/>
  <path d="M112.5,60.73 C110.93,41.32 110.62,18.3 94.61,18.27 C92.01,18.26 89.56,18.97 87.43,20.02 C85.13,21.16 82.38,20.62 80.77,18.62 C77.99,15.16 73.67,12.94 68.8,12.94 C63.59,12.94 58.99,15.49 56.25,19.39 C54.74,21.54 51.88,22.13 49.62,20.78 C47.91,19.76 46,19.14 43.96,19.03 C39.85,18.81 35.96,20.66 32.93,23.86 C32.09,24.75 30.87,25.15 29.68,24.89 C18.56,22.42 15.26,30.66 12.38,40.54 C12.38,40.54 -3.34,84.23 15.66,87.9 C17.11,88.18 20.77,88.77 22.09,88.63 C24.47,88.37 26.81,89.29 28.56,90.92 C31.34,93.51 34.76,95.13 38.23,95.32 C41.65,95.51 45.23,94.73 48.36,93.04 C50.57,91.85 53.26,92.64 54.66,94.73 C57.64,99.18 62.34,101.58 67.99,101.58 C72.51,101.58 77.72,100.26 80.84,97.22 C84.18,93.96 89.28,93.52 93.16,96.11 C95.31,97.54 98.66,98.46 104.33,97.25 C116,94.73 114.42,84.48 112.5,60.73 Z" fill="url(#b)"/>
  <path d="M56.839,92.344 Q59.377,97.769 69.214,99.257 Q75.304,100.182 82.009,95.291 Q83.052,94.53 83.456,94.316 Q87.755,92.037 95.58,94.759 Q101.165,96.702 104.099,96.285 Q111.071,95.287 112.69,88.629 Q114.294,82.033 111.661,66.491 Q111.411,65.012 112.889,64.761 Q114.368,64.511 114.619,65.989 Q117.355,82.141 115.605,89.338 Q113.506,97.969 104.521,99.255 Q100.867,99.774 94.595,97.593 Q88.004,95.3 84.864,96.964 Q84.648,97.079 83.777,97.715 Q76.074,103.334 68.766,102.223 Q57.34,100.495 54.121,93.616 Q53.804,92.936 53.984,92.438 Q54.165,91.939 54.844,91.621 Q56.203,90.986 56.839,92.344 Z" fill="#EDA600"/>
  <path d="M68.8,15.94 C72.54,15.94 76.01,17.56 78.34,20.39 C80.01,22.42 82.45,23.58 85.04,23.58 C86.34,23.58 87.59,23.29 88.76,22.71 C90.7,21.75 92.66,21.27 94.61,21.27 C100.07,21.28 103.68,24.85 106.69,33.2 C107.18,34.55 107.72,35.95 108.3,37.43 C110.22,42.37 112.61,48.52 114.64,57.52 C116.03,63.67 117.35,70.16 118.56,76.79 C120.33,86.55 118.72,96.49 114,104.77 C111.07,109.93 109.02,110.89 108.28,111.06 C107.02,111.36 105.97,111.5 105.09,111.5 C103.79,111.5 102.92,111.19 101.6,110.71 C99.46,109.95 96.81,108.99 91.62,108.99 L91.07,108.99 C86.07,109.05 81.92,110.07 78.59,110.89 C76.08,111.51 73.91,112.04 72.02,112.04 C71.28,112.04 70.61,111.96 69.97,111.79 C69.74,111.73 69.5,111.69 69.25,111.69 C67.22,111.66 65.56,110.24 64.53,109.07 C62.1,106.29 60.61,101.89 61,98.62 C61.12,97.58 60.69,96.55 59.87,95.9 C58.81,95.07 57.91,94.1 57.19,93.03 C55.69,90.79 53.22,89.46 50.59,89.46 C49.33,89.46 48.08,89.78 46.97,90.38 C44.62,91.65 41.95,92.32 39.27,92.32 C38.99,92.32 38.71,92.31 38.43,92.3 C35.74,92.15 32.97,90.88 30.64,88.7 C28.46,86.67 25.73,85.56 22.93,85.56 C22.55,85.56 22.17,85.58 21.8,85.62 C21.75,85.62 21.69,85.63 21.63,85.63 C20.42,85.63 17.72,85.22 16.27,84.94 C14.04,84.51 12.46,83.37 11.32,81.37 C6.1,72.2 12.38,49.51 15.24,41.55 C15.26,41.49 15.28,41.43 15.3,41.38 C18,32.14 20.39,27.44 26,27.44 C26.93,27.44 27.97,27.57 29.07,27.81 C29.28,27.86 29.5,27.88 29.72,27.88 L29.84,27.88 C31.77,27.88 34.13,26.89 35.57,25.48 C37.9,23.21 40.58,22 43.32,22 C43.49,22 43.66,22 43.83,22.01 C45.33,22.09 46.78,22.54 48.12,23.34 C49.37,24.09 50.8,24.48 52.24,24.48 C54.82,24.48 57.25,23.21 58.74,21.09 C60.98,17.87 64.75,15.94 68.8,15.94 M68.8,12.94 C63.59,12.94 58.99,15.49 56.25,19.39 C55.28,20.77 53.77,21.5 52.21,21.5 C51.33,21.5 50.44,21.27 49.63,20.78 C47.92,19.76 46.01,19.14 43.97,19.03 C43.75,19.02 43.52,19.01 43.3,19.01 C39.66,19.01 36.23,20.63 33.45,23.34 C32.61,24.16 31,24.88 29.82,24.88 L29.7,24.88 C28.35,24.58 27.11,24.44 25.98,24.44 C17.79,24.44 14.94,31.85 12.4,40.54 C12.4,40.54 -3.32,84.23 15.68,87.9 C16.98,88.15 20.03,88.65 21.61,88.65 C21.8,88.65 21.97,88.64 22.11,88.63 C22.38,88.6 22.65,88.59 22.92,88.59 C25.02,88.59 27.03,89.48 28.59,90.93 C31.37,93.52 34.79,95.14 38.26,95.33 C38.59,95.35 38.93,95.36 39.26,95.36 C42.37,95.36 45.56,94.58 48.38,93.06 C49.08,92.68 49.83,92.5 50.57,92.5 C52.17,92.5 53.73,93.32 54.68,94.74 C55.62,96.14 56.75,97.32 58.01,98.3 C57.22,104.95 62.25,114.62 69.19,114.73 C70.12,114.98 71.05,115.08 72.01,115.08 C77.09,115.08 82.72,112.14 91.1,112.03 L91.62,112.03 C99.69,112.03 100.78,114.53 105.09,114.53 C106.14,114.53 107.38,114.38 108.96,114.01 C111.78,113.35 114.39,110.17 116.6,106.28 C121.76,97.21 123.37,86.55 121.5,76.28 C120.52,70.86 119.19,64.11 117.56,56.88 C114.86,44.96 111.6,38.01 109.51,32.2 C106.71,24.43 102.66,18.3 94.62,18.29 L94.59,18.29 C92,18.29 89.56,18.99 87.44,20.04 C86.68,20.42 85.86,20.6 85.05,20.6 C83.4,20.6 81.77,19.85 80.67,18.51 C77.87,15.11 73.6,12.94 68.8,12.94 Z" fill="#EDA600"/>
  <path d="M31.102,50.225 Q26.423,68.329 27.557,86.969 Q27.603,87.718 27.251,88.115 Q26.9,88.512 26.151,88.557 Q24.654,88.648 24.563,87.151 Q23.4,68.038 28.198,49.475 Q28.385,48.749 28.842,48.479 Q29.299,48.21 30.025,48.398 Q31.478,48.773 31.102,50.225 Z" fill="#EDA600"/>
  <path d="M54.636,49.062 Q53.562,56.971 53.546,72.916 Q53.531,88.717 54.508,90.896 Q55.123,92.264 53.754,92.879 Q52.386,93.493 51.771,92.124 Q50.53,89.358 50.546,72.914 Q50.562,56.767 51.664,48.658 Q51.866,47.172 53.352,47.374 Q54.838,47.576 54.636,49.062 Z" fill="#EDA600"/>
  <path d="M82.65,44.256 Q86.543,67.871 86.9,93.969 Q86.92,95.469 85.421,95.49 Q83.921,95.51 83.9,94.011 Q83.546,68.137 79.69,44.744 Q79.446,43.264 80.926,43.02 Q81.666,42.898 82.097,43.207 Q82.528,43.516 82.65,44.256 Z" fill="#EDA600"/>
</svg>

<svg viewBox="0 0 128 128" xmlns="http://www.w3.org/2000/svg" xmlns:xlink="http://www.w3.org/1999/xlink">
  <path d="m80.88 73.92c0.24 3.11-1.7 5.91-4.74 6.68-1.87 0.47-1.08 3.37 0.8 2.89 4.25-1.08 7.28-5.18 6.95-9.57-0.15-1.92-3.15-1.93-3.01 0z" fill="#EDA600"/>
  <radialGradient id="c" cx="-485.4" cy="-2681.4" gradientTransform="matrix(-.0709 -.8662 -.6571 .0538 -1707.7 -203.1)" gradientUnits="userSpaceOnUse" r="47.281">
    <stop offset=".3" stop-color="#FFCA28"/>
    <stop offset=".8" stop-color="#FFB300"/>
  </radialGradient>
  <path d="m69.18 114.71c-7.22-0.12-12.37-10.58-11.06-17.22 1.49-7.5 6.4-12.24 15.37-11.14 20.81 2.55 25.39-1.71 27.58-8.14 3.03-8.87 6.07-49.2 6.07-49.2s6.32 9.8 10.4 27.84c1.64 7.23 2.96 13.98 3.94 19.4 1.87 10.27 0.26 20.93-4.9 30-2.21 3.89-4.82 7.07-7.64 7.73-8.2 1.92-7.28-2.11-17.86-1.98-9.95 0.14-16.02 4.26-21.9 2.71z" fill="url(#c)"/>
  <radialGradient id="b" cx="48.48" cy="32.937" gradientUnits="userSpaceOnUse" r="91.087">
    <stop offset=".4" stop-color="#FFCA28"/>
    <stop offset="1" stop-color="#FFB300"/>
  </radialGradient>
  <path d="m112.5 60.73c-1.57-19.41-1.88-42.43-17.89-42.46-2.6-0.01-5.05 0.7-7.18 1.75-2.3 1.14-5.05 0.6-6.66-1.4-2.78-3.46-7.1-5.68-11.97-5.68-5.21 0-9.81 2.55-12.55 6.45-1.51 2.15-4.37 2.74-6.63 1.39-1.71-1.02-3.62-1.64-5.66-1.75-4.11-0.22-8 1.63-11.03 4.83-0.84 0.89-2.06 1.29-3.25 1.03-11.12-2.47-14.42 5.77-17.3 15.65 0 0-15.72 43.69 3.28 47.36 1.45 0.28 5.11 0.87 6.43 0.73 2.38-0.26 4.72 0.66 6.47 2.29 2.78 2.59 6.2 4.21 9.67 4.4 3.42 0.19 7-0.59 10.13-2.28 2.21-1.19 4.9-0.4 6.3 1.69 2.98 4.45 7.68 6.85 13.33 6.85 4.52 0 9.73-1.32 12.85-4.36 3.34-3.26 8.44-3.7 12.32-1.11 2.15 1.43 5.5 2.35 11.17 1.14 11.67-2.52 10.09-12.77 8.17-36.52z" fill="url(#b)"/>
  <defs>
    <path id="a" d="m116.48 81.34-6.05-48.22c-1.65-11.12-7.44-15.22-15.82-14.86-2.6 0.11-5.05 0.7-7.18 1.75-2.3 1.14-5.05 0.6-6.66-1.4-2.78-3.46-7.1-5.68-11.97-5.68-5.23 0-9.84 2.57-12.57 6.48-1.49 2.14-4.33 2.73-6.57 1.38-1.72-1.03-3.64-1.65-5.69-1.77-4.12-0.23-8.01 1.63-11.04 4.84-0.83 0.88-2.04 1.28-3.22 1.02h-0.02c-11.12-2.47-14.42 5.77-17.3 15.65l-7.83 30.5c-1.19 10.37 4.84 16.93 13.33 17.63 1.48 0.12 2.89 0.11 4.22-0.03 2.37-0.26 4.7 0.66 6.45 2.28 2.78 2.59 6.2 4.22 9.68 4.41 3.42 0.19 7-0.59 10.13-2.28 2.21-1.19 4.9-0.4 6.3 1.69 2.98 4.45 8.47 7.45 14.12 7.45 4.41 0 8.73-1.83 11.83-4.75 3.49-3.29 8.82-3.61 12.9-1.1 2.13 1.31 5.17 2.22 10.61 1.48 11.71-1.59 13.61-6.34 12.35-16.47z"/>
  </defs>
  <clipPath>
    <use xlink:href="#a"/>
  </clipPath>
  <path d="m55.48 92.98c1.31 2.8 4.45 6.39 13.51 7.76 8.16 1.24 13.44-4.18 15.17-5.1 6.66-3.53 12.69 3.19 20.15 2.13 11.04-1.58 12.25-11.34 8.83-31.53" fill="none" stroke="#EDA600" stroke-linecap="round" stroke-linejoin="round" stroke-miterlimit="10" stroke-width="3"/>
  <path d="m68.8 15.94c3.74 0 7.21 1.62 9.54 4.45 1.67 2.03 4.11 3.19 6.7 3.19 1.3 0 2.55-0.29 3.72-0.87 1.94-0.96 3.9-1.44 5.85-1.44 5.46 0.01 9.07 3.58 12.08 11.93 0.49 1.35 1.03 2.75 1.61 4.23 1.92 4.94 4.31 11.09 6.34 20.09 1.39 6.15 2.71 12.64 3.92 19.27 1.77 9.76 0.16 19.7-4.56 27.98-2.93 5.16-4.98 6.12-5.72 6.29-1.26 0.3-2.31 0.44-3.19 0.44-1.3 0-2.17-0.31-3.49-0.79-2.14-0.76-4.79-1.72-9.98-1.72h-0.55c-5 0.06-9.15 1.08-12.48 1.9-2.51 0.62-4.68 1.15-6.57 1.15-0.74 0-1.41-0.08-2.05-0.25-0.23-0.06-0.47-0.1-0.72-0.1-2.03-0.03-3.69-1.45-4.72-2.62-2.43-2.78-3.92-7.18-3.53-10.45 0.12-1.04-0.31-2.07-1.13-2.72-1.06-0.83-1.96-1.8-2.68-2.87-1.5-2.24-3.97-3.57-6.6-3.57-1.26 0-2.51 0.32-3.62 0.92-2.35 1.27-5.02 1.94-7.7 1.94-0.28 0-0.56-0.01-0.84-0.02-2.69-0.15-5.46-1.42-7.79-3.6-2.18-2.03-4.91-3.14-7.71-3.14-0.38 0-0.76 0.02-1.13 0.06-0.05 0-0.11 0.01-0.17 0.01-1.21 0-3.91-0.41-5.36-0.69-2.23-0.43-3.81-1.57-4.95-3.57-5.22-9.17 1.06-31.86 3.92-39.82 0.02-0.06 0.04-0.12 0.06-0.17 2.7-9.24 5.09-13.94 10.7-13.94 0.93 0 1.97 0.13 3.07 0.37 0.21 0.05 0.43 0.07 0.65 0.07h0.12c1.93 0 4.29-0.99 5.73-2.4 2.33-2.27 5.01-3.48 7.75-3.48 0.17 0 0.34 0 0.51 0.01 1.5 0.08 2.95 0.53 4.29 1.33 1.25 0.75 2.68 1.14 4.12 1.14 2.58 0 5.01-1.27 6.5-3.39 2.24-3.22 6.01-5.15 10.06-5.15m0-3c-5.21 0-9.81 2.55-12.55 6.45-0.97 1.38-2.48 2.11-4.04 2.11-0.88 0-1.77-0.23-2.58-0.72-1.71-1.02-3.62-1.64-5.66-1.75-0.22-0.01-0.45-0.02-0.67-0.02-3.64 0-7.07 1.62-9.85 4.33-0.84 0.82-2.45 1.54-3.63 1.54h-0.12c-1.35-0.3-2.59-0.44-3.72-0.44-8.19 0-11.04 7.41-13.58 16.1 0 0-15.72 43.69 3.28 47.36 1.3 0.25 4.35 0.75 5.93 0.75 0.19 0 0.36-0.01 0.5-0.02 0.27-0.03 0.54-0.04 0.81-0.04 2.1 0 4.11 0.89 5.67 2.34 2.78 2.59 6.2 4.21 9.67 4.4 0.33 0.02 0.67 0.03 1 0.03 3.11 0 6.3-0.78 9.12-2.3 0.7-0.38 1.45-0.56 2.19-0.56 1.6 0 3.16 0.82 4.11 2.24 0.94 1.4 2.07 2.58 3.33 3.56-0.79 6.65 4.24 16.32 11.18 16.43 0.93 0.25 1.86 0.35 2.82 0.35 5.08 0 10.71-2.94 19.09-3.05h0.52c8.07 0 9.16 2.5 13.47 2.5 1.05 0 2.29-0.15 3.87-0.52 2.82-0.66 5.43-3.84 7.64-7.73 5.16-9.07 6.77-19.73 4.9-30-0.98-5.42-2.31-12.17-3.94-19.4-2.7-11.92-5.96-18.87-8.05-24.68-2.8-7.77-6.85-13.9-14.89-13.91h-0.03c-2.59 0-5.03 0.7-7.15 1.75-0.76 0.38-1.58 0.56-2.39 0.56-1.65 0-3.28-0.75-4.38-2.09-2.8-3.4-7.07-5.57-11.87-5.57z" fill="#EDA600"/>
  <path d="m29.65 49.85c-3.13 12.11-4.35 24.72-3.59 37.21" fill="none" stroke="#EDA600" stroke-linecap="round" stroke-linejoin="round" stroke-miterlimit="10" stroke-width="3"/>
  <path d="m53.15 48.86c-1.44 10.6-1.5 39.33-0.01 42.65" fill="none" stroke="#EDA600" stroke-linecap="round" stroke-linejoin="round" stroke-miterlimit="10" stroke-width="3"/>
  <path d="m81.17 44.5c2.85 17.29 3.99 31.96 4.23 49.49" fill="none" stroke="#EDA600" stroke-linecap="round" stroke-linejoin="round" stroke-miterlimit="10" stroke-width="3"/>
</svg>
